!!!OTL: Wiedersehen an der Bahre 'Jetzt reis' ich fort, mein geliebtes Kind,
!!!ARE: Europa, Mitteleuropa, Schweiz, Kt. Zuerich, Wehntal
!!!YOR: 3, S. 67
!!    1904 aufgezeichnet
!!!SCT: Q0056A
!!!YEM: Copyright 1995, estate of Helmut Schaffrath.
**kern
*ICvox
*Ivox
*M3/4
*k[b-]
*F:
{8c
=1
8.f
16f
4f
8g
8g
=2
8.a
16a
4.a}
{8a
=3
8g
8a
4cc
8b-
8g
=4
4g
4a
8r}
{8a
=5
8b-
8dd
4dd
8cc
8b-
=6
8a
8ff
4cc
8a}
{8a
=7
8g
8cc
4cc
8b-
8g
=8
4g
4a
8r}
{8a
=9
8b-
8dd
4dd
8cc
8b-
=10
8a
8ff
4cc
8a}
{8a
=11
8g
8cc
4cc
8b-
8g
=12
4g
4a
8r}
==
!!!AGN: Ballade, Abschied, Enttaeuschung, Tod, Selbstmord
!!!ONB: ESAC (Essen Associative Code) Database: BALLADE
!!!AMT: simple triple
!!!AIN: vox
!!!EED: Helmut Schaffrath
!!!EEV: 1.0
*-
